X: 126
T: Galway Bay
M:4/4
R:reel
L:1/8
Z:added by Alf warnock alf0@rogers.com - www.alfwarnock.info/alfs
K:C
Gc|"C"eeee eedc|"G7"cB6G|gggg gdef|"C"e6Gc|
eeee "C7"egfe|"F"dA6d|"G7"d^cde fBed|"C"c8|]

